images/ic_medic.svg

<svg width="20" height="20" viewBox="0 0 20 20" fill="none" xmlns="http://www.w3.org/2000/svg">
<path d="M18.2648 1.73523C17.146 0.61615 15.6583 0 14.0759 0C12.4934 0 11.0057 0.61615 9.88693 1.73523L1.73523 9.88678C0.61615 11.0057 0 12.4934 0 14.0759C0 15.6583 0.61615 17.146 1.73523 18.2648C2.85416 19.3837 4.34174 20 5.92407 20C7.50656 20 8.99429 19.3839 10.1132 18.2648L14.1994 14.1786C14.5045 13.8734 14.5045 13.3788 14.1994 13.0737L7.47864 6.353L10.9917 2.83997C11.8155 2.01614 12.9108 1.5625 14.0759 1.5625C15.2409 1.5625 16.3362 2.01614 17.16 2.83997C17.9839 3.66379 18.4375 4.75906 18.4375 5.92407C18.4375 7.08923 17.9839 8.18451 17.1616 9.00681L15.8 10.3607C15.4941 10.665 15.4927 11.1595 15.797 11.4655C16.1012 11.7714 16.5959 11.7728 16.9019 11.4685L18.2648 10.1131C19.3839 8.99429 20 7.50656 20 5.92407C20 4.34174 19.3839 2.854 18.2648 1.73523ZM12.5421 13.6261L9.00833 17.16C8.18451 17.9839 7.08923 18.4375 5.92407 18.4375C4.75906 18.4375 3.66379 17.9839 2.83997 17.16C2.01614 16.3362 1.5625 15.2409 1.5625 14.0759C1.5625 12.9108 2.01614 11.8155 2.83997 10.9917L6.3739 7.45789L12.5421 13.6261ZM15.0449 4.91608C14.5197 4.39102 13.6653 4.39102 13.1401 4.91608L11.2396 6.81839C11.087 6.97113 10.887 7.04742 10.687 7.04742C10.4871 7.04742 10.2873 6.97128 10.1347 6.81885C9.82956 6.51382 9.82925 6.01929 10.1343 5.71396L12.0351 3.81149C13.1696 2.67685 15.0153 2.67685 16.1496 3.81119C16.4548 4.11636 16.4548 4.61105 16.1496 4.91608C15.8446 5.2211 15.3499 5.22125 15.0449 4.91608ZM3.8504 16.1887C3.54523 15.8836 3.54523 15.3889 3.8504 15.0839C4.15543 14.7787 4.65012 14.7787 4.95514 15.0839C5.48035 15.609 6.33484 15.609 6.85989 15.0839L8.76709 13.1749C9.07196 12.8697 9.56665 12.8696 9.87198 13.1744C10.1772 13.4795 10.1773 13.974 9.87244 14.2793L7.96494 16.1885C7.39761 16.7557 6.65253 17.0395 5.90744 17.0395C5.16235 17.0395 4.41757 16.7558 3.8504 16.1887Z" fill="#3D3D3D"/>
</svg>

<svg xmlns="http://www.w3.org/2000/svg" fill="none" viewBox="0 0 20 20"><path d="M18.265 1.735C17.146.616 15.66 0 14.076 0s-3.07.616-4.19 1.735L1.735 9.887C.616 11.006 0 12.493 0 14.076s.616 3.07 1.735 4.19S4.342 20 5.924 20s3.07-.616 4.19-1.735L14.2 14.18a.78.78 0 0 0 0-1.105l-6.72-6.72 3.513-3.513c.824-.824 1.92-1.277 3.084-1.277A4.33 4.33 0 0 1 17.16 2.84a4.33 4.33 0 0 1 1.277 3.084 4.33 4.33 0 0 1-1.276 3.083L15.8 10.36a.78.78 0 1 0 1.102 1.108l1.363-1.355C19.384 8.994 20 7.507 20 5.924s-.616-3.07-1.735-4.19zm-5.723 11.89L9.01 17.16a4.33 4.33 0 0 1-3.084 1.277A4.33 4.33 0 0 1 2.84 17.16c-.824-.824-1.277-1.92-1.277-3.084a4.33 4.33 0 0 1 1.278-3.084l3.534-3.534 6.168 6.168zm2.503-8.7a1.35 1.35 0 0 0-1.905 0l-1.9 1.902a.78.78 0 0 1-1.105 0 .78.78 0 0 1 0-1.105l1.9-1.902c1.135-1.135 2.98-1.135 4.115 0a.78.78 0 1 1-1.105 1.105zM3.85 16.19a.78.78 0 1 1 1.105-1.105 1.35 1.35 0 0 0 1.905 0l1.907-1.91a.78.78 0 1 1 1.105 1.104l-1.908 1.91a2.9 2.9 0 0 1-2.057.851 2.9 2.9 0 0 1-2.057-.851z" fill="#3d3d3d"/></svg>
